icons-dark/apps/48/kmag.svg

<?xml version="1.0" encoding="UTF-8" standalone="no"?>

<!-- Created with Inkscape (http://www.inkscape.org/) -->
<svg width="48" version="1.1" xmlns="http://www.w3.org/2000/svg" height="48" xmlns:xlink="http://www.w3.org/1999/xlink" xmlns:inkscape="http://www.inkscape.org/namespaces/inkscape">
 <defs id="defs5455">
  <linearGradient inkscape:collect="always" id="linearGradient4159">
   <stop style="stop-color:#2a2c2f" id="stop4161"/>
   <stop offset="1" style="stop-color:#424649" id="stop4163"/>
  </linearGradient>
  <linearGradient inkscape:collect="always" xlink:href="#linearGradient4159" id="linearGradient4250" y1="536.79797" y2="503.798" x2="0" gradientUnits="userSpaceOnUse"/>
  <linearGradient inkscape:collect="always" xlink:href="#linearGradient4303" id="linearGradient4272" y1="547.79797" y2="536.79797" x2="0" gradientUnits="userSpaceOnUse" gradientTransform="matrix(1 0 0 0.54545471 0 243.999)"/>
  <linearGradient inkscape:collect="always" id="linearGradient4303">
   <stop style="stop-color:#c6cdd1" id="stop4305"/>
   <stop offset="1" style="stop-color:#e0e5e7" id="stop4307"/>
  </linearGradient>
  <linearGradient id="linearGradient4227">
   <stop style="stop-color:#2e3436" id="stop4229"/>
   <stop offset="1" style="stop-color:#555753" id="stop4231"/>
  </linearGradient>
  <linearGradient inkscape:collect="always" xlink:href="#linearGradient4697" id="linearGradient4703" y1="503.07938" x1="418.16971" y2="531.45813" x2="384.57144" gradientUnits="userSpaceOnUse" gradientTransform="matrix(0.91666628 0 0 0.91666628 -340.52366 -455.81464)"/>
  <linearGradient inkscape:collect="always" id="linearGradient4697">
   <stop style="stop-color:#4ce0c6" id="stop4699"/>
   <stop offset="1" style="stop-color:#3b85b5" id="stop4701"/>
  </linearGradient>
  <linearGradient inkscape:collect="always" xlink:href="#linearGradient4526" id="linearGradient4532" y1="521.63281" x1="404.0452" y2="528.35034" x2="430.73611" gradientUnits="userSpaceOnUse" gradientTransform="matrix(0.91666628 0 0 0.91666628 -340.52366 -455.81464)"/>
  <linearGradient inkscape:collect="always" id="linearGradient4526">
   <stop style="stop-color:#ffc169" id="stop4528"/>
   <stop offset="1" style="stop-color:#ffa92d" id="stop4530"/>
  </linearGradient>
  <linearGradient inkscape:collect="always" xlink:href="#linearGradient4468" id="linearGradient4474" y1="542.22382" x1="398.09201" y2="524.89966" x2="394.00299" gradientUnits="userSpaceOnUse" gradientTransform="matrix(0.91666628 0 0 0.91666628 -340.52366 -455.81464)"/>
  <linearGradient inkscape:collect="always" id="linearGradient4468">
   <stop style="stop-color:#334545" id="stop4470"/>
   <stop offset="1" style="stop-color:#536161" id="stop4472"/>
  </linearGradient>
  <linearGradient inkscape:collect="always" xlink:href="#linearGradient4468" id="linearGradient4500" y1="568.79803" x1="431.57141" y2="562.79803" x2="439.57141" gradientUnits="userSpaceOnUse" gradientTransform="matrix(-1 0 0 1 839.14285 -40.00001)"/>
  <linearGradient inkscape:collect="always" xlink:href="#linearGradient4468" id="linearGradient4498" y1="581.87024" x1="406.53735" y2="572.67786" x2="423.31955" gradientUnits="userSpaceOnUse" gradientTransform="matrix(-0.91666628 0 0 0.91666628 428.69029 -492.4813)"/>
  <linearGradient inkscape:collect="always" xlink:href="#linearGradient4468" id="linearGradient4496" y1="572.33411" x1="423.05438" y2="566.76562" x2="431.22452" gradientUnits="userSpaceOnUse" gradientTransform="matrix(-0.91666628 0 0 0.91666628 448.69029 -492.4813)"/>
  <linearGradient inkscape:collect="always" xlink:href="#linearGradient4468" id="linearGradient4492" y1="577.10217" x1="431.3129" y2="571.44531" x2="440.63208" gradientUnits="userSpaceOnUse" gradientTransform="matrix(-0.91666628 0 0 0.91666628 428.69029 -492.4813)"/>
  <linearGradient inkscape:collect="always" xlink:href="#linearGradient4468" id="linearGradient4490" y1="577.36243" x1="430.56738" y2="591.32782" x2="423.74994" gradientUnits="userSpaceOnUse" gradientTransform="matrix(-0.91666628 0 0 0.91666628 428.69029 -492.4813)"/>
 </defs>
 <metadata id="metadata5458"/>
 <g inkscape:label="Capa 1" inkscape:groupmode="layer" id="layer1" transform="matrix(1 0 0 1 -384.57143 -499.798)">
  <path inkscape:connector-curvature="0" style="stroke-opacity:0.550265;fill:url(#linearGradient4272);stroke-width:2.8" id="rect4254" d="m 402.57143,536.798 0,3.81818 0,1.09091 0,1.09091 12,0 0,-1.09091 0,-1.09091 0,-3.81818 z"/>
  <rect width="48" x="384.57144" y="503.798" height="35.999996" style="stroke-opacity:0.550265;fill:url(#linearGradient4250);stroke-width:2.8" id="rect4173"/>
  <g id="g4578" transform="matrix(0.91666628 0 0 0.91666628 34.04777 43.983359)">
   <path inkscape:connector-curvature="0" style="fill:url(#linearGradient4703)" id="path4589" d="M 12,6 12,36 56,36 56,6 12,6 Z" transform="matrix(1.0909096 0 0 1.0909096 371.48052 497.25255)"/>
   <path inkscape:connector-curvature="0" style="fill:url(#linearGradient4532);stroke-linecap:round;stroke-width:2" id="path4284" d="M 56,6 25.71875,23.482422 47.400391,36 56,36 56,6 Z" transform="matrix(1.0909096 0 0 1.0909096 371.48052 497.25255)"/>
   <path inkscape:connector-curvature="0" style="fill:url(#linearGradient4474);stroke-linecap:round;stroke-width:2" id="path4284-5-6" d="M 25.75,23.416016 12,31.355469 12,36 47.605469,36 25.75,23.416016 Z" transform="matrix(1.0909096 0 0 1.0909096 371.48052 497.25255)"/>
   <path inkscape:transform-center-x="-5.5056915" inkscape:connector-curvature="0" style="fill:url(#linearGradient4500);stroke-linecap:round;stroke-width:2" id="path4284-5-6-2-2" d="m 407.82995,527.56606 -8.25852,-4.76806 0,9.53611 z"/>
   <path inkscape:connector-curvature="0" style="fill:url(#linearGradient4498);stroke-linecap:round;stroke-width:2" id="path4284-5-6-2-0" d="m 40.890625,32.15625 0,3.84375 6.65625,0 -6.65625,-3.84375 z" transform="matrix(1.0909096 0 0 1.0909096 371.48052 497.25255)"/>
   <path inkscape:connector-curvature="0" style="fill:url(#linearGradient4496);stroke-linecap:round;stroke-width:2" id="path4284-5-6-2-6" d="m 53.320312,27.787109 0,8.212891 0.916016,0 6.654297,-3.841797 -7.570313,-4.371094 z" transform="matrix(1.0909096 0 0 1.0909096 349.66233 497.25255)"/>
   <path inkscape:connector-curvature="0" style="fill:url(#linearGradient4492);stroke-linecap:round;stroke-width:2" id="path4284-5-6-2-6-50" d="M 25.75,32.158203 25.75,36 32.404297,36 25.75,32.158203 Z" transform="matrix(1.0909096 0 0 1.0909096 371.48052 497.25255)"/>
   <path inkscape:connector-curvature="0" style="fill:url(#linearGradient4490);stroke-linecap:round;stroke-width:2" id="path4284-5-6-2-0-6" d="M 40.890625,32.15625 34.234375,36 l 6.65625,0 0,-3.84375 z" transform="matrix(1.0909096 0 0 1.0909096 371.48052 497.25255)"/>
   <path inkscape:transform-center-x="5.5056789" inkscape:connector-curvature="0" style="fill:#ffa92d;stroke-linecap:round;stroke-width:2" id="path4284-1" d="m 399.53737,522.87024 33.03408,-19.07223 -2e-5,9.31712 z"/>
  </g>
  <rect width="22" x="397.57144" y="541.79797" height="1.999947" style="stroke-opacity:0.550265;fill:#99a1a7;stroke-width:2.8" id="rect4295"/>
  <path style="fill:#ffffff;stroke-width:0.1" id="rect4421" d="M 3 7 L 3 8 L 3 12 L 4 12 L 4 8 L 8 8 L 8 7 L 3 7 z M 40 7 L 40 8 L 44 8 L 44 12 L 45 12 L 45 8 L 45 7 L 40 7 z M 22 13 C 18.676 13 16 15.676 16 19 C 16 22.324 18.676 25 22 25 C 23.481208 25 24.830585 24.465318 25.875 23.582031 L 31.292969 29 L 32 28.292969 L 26.582031 22.875 C 27.465317 21.830584 28 20.481203 28 19 C 28 15.676 25.32401 13 22 13 z M 22 14 C 24.77001 14 27 16.23 27 19 C 27 21.77 24.77001 24 22 24 C 19.23 24 17 21.77 17 19 C 17 16.23 19.23 14 22 14 z M 3 30 L 3 34 L 3 35 L 8 35 L 8 34 L 4 34 L 4 30 L 3 30 z M 44 30 L 44 34 L 40 34 L 40 35 L 45 35 L 45 34 L 45 30 L 44 30 z " transform="matrix(1 0 0 1 384.57143 499.798)"/>
 </g>
</svg>

<svg width="48" xmlns="http://www.w3.org/2000/svg" height="48" xmlns:xlink="http://www.w3.org/1999/xlink">
 <defs>
  <linearGradient id="a" y1="536.8" y2="503.8" x2="0" gradientUnits="userSpaceOnUse">
   <stop stop-color="#2a2c2f"/>
   <stop offset="1" stop-color="#424649"/>
  </linearGradient>
  <linearGradient id="b" y1="547.8" y2="536.8" x2="0" gradientUnits="userSpaceOnUse" gradientTransform="matrix(1 0 0 .54545 0 244)">
   <stop stop-color="#c6cdd1"/>
   <stop offset="1" stop-color="#e0e5e7"/>
  </linearGradient>
  <linearGradient id="c" y1="5.342" x1="42.799" y2="31.357" x2="11.999" gradientUnits="userSpaceOnUse">
   <stop stop-color="#4ce0c6"/>
   <stop offset="1" stop-color="#3b85b5"/>
  </linearGradient>
  <linearGradient id="d" y1="22.346" x1="29.855" y2="28.506" x2="54.32" gradientUnits="userSpaceOnUse">
   <stop stop-color="#ffc169"/>
   <stop offset="1" stop-color="#ffa92d"/>
  </linearGradient>
  <linearGradient id="e" y1="41.22" x1="24.392" y2="25.343" x2="20.643" gradientUnits="userSpaceOnUse">
   <stop stop-color="#334545"/>
   <stop offset="1" stop-color="#536161"/>
  </linearGradient>
  <linearGradient xlink:href="#e" id="f" y1="568.8" x1="431.57" y2="562.8" x2="439.57" gradientUnits="userSpaceOnUse" gradientTransform="matrix(-1 0 0 1 839.14-40)"/>
  <linearGradient xlink:href="#e" id="g" y1="40.899" x1="56.03" y2="32.475" x2="40.647" gradientUnits="userSpaceOnUse"/>
  <linearGradient xlink:href="#e" id="h" y1="32.15" x1="60.895" y2="27.06" x2="53.41" gradientUnits="userSpaceOnUse"/>
  <linearGradient xlink:href="#e" id="i" y1="36.527" x1="33.32" y2="31.348" x2="24.78" gradientUnits="userSpaceOnUse"/>
  <linearGradient xlink:href="#e" id="j" y1="36.765" x1="34" y2="49.571" x2="40.25" gradientUnits="userSpaceOnUse"/>
 </defs>
 <g transform="translate(-384.57-499.8)">
  <g stroke-opacity=".55" stroke-width="2.8">
   <path fill="url(#b)" d="m402.57 536.8v6h12v-6z"/>
   <rect width="48" x="384.57" y="503.8" fill="url(#a)" height="36"/>
  </g>
  <g transform="matrix(.91667 0 0 .91667 34.05 43.983)">
   <path fill="url(#c)" d="m12 6v30h44v-30z" transform="matrix(1.09091 0 0 1.09091 371.48 497.25)"/>
   <g stroke-width="2">
    <path fill="url(#d)" d="m56 6l-30.28 17.482 21.682 12.518h8.6z" transform="matrix(1.09091 0 0 1.09091 371.48 497.25)"/>
    <path fill="url(#e)" d="m25.75 23.416l-13.75 7.939v4.645h35.605z" transform="matrix(1.09091 0 0 1.09091 371.48 497.25)"/>
    <path fill="url(#f)" d="m407.83 527.57l-8.259-4.768v9.536z"/>
    <path fill="url(#g)" d="m40.891 32.16v3.844h6.656z" transform="matrix(1.09091 0 0 1.09091 371.48 497.25)"/>
    <path fill="url(#h)" d="m53.32 27.787v8.213h.916l6.654-3.842z" transform="matrix(1.09091 0 0 1.09091 349.66 497.25)"/>
    <path fill="url(#i)" d="m25.75 32.16v3.842h6.654z" transform="matrix(1.09091 0 0 1.09091 371.48 497.25)"/>
    <path fill="url(#j)" d="m40.891 32.16l-6.656 3.844h6.656z" transform="matrix(1.09091 0 0 1.09091 371.48 497.25)"/>
    <path fill="#ffa92d" d="m399.54 522.87l33.03-19.07v9.317z"/>
   </g>
  </g>
  <rect width="22" x="397.57" y="541.8" stroke-opacity=".55" fill="#99a1a7" height="2" stroke-width="2.8"/>
  <path fill="#ffffff" stroke-width=".1" d="m3 7v5h1v-4h4v-1zm37 0v1h4v4h1v-5zm-18 6c-3.324 0-6 2.676-6 6 0 3.324 2.676 6 6 6 1.481 0 2.831-.535 3.875-1.418l5.418 5.418.707-.707-5.418-5.418c.883-1.044 1.418-2.394 1.418-3.875 0-3.324-2.676-6-6-6m0 1c2.77 0 5 2.23 5 5 0 2.77-2.23 5-5 5-2.77 0-5-2.23-5-5 0-2.77 2.23-5 5-5m-19 16v5h5v-1h-4v-4zm41 0v4h-4v1h5v-5z" transform="translate(384.57 499.8)"/>
 </g>
</svg>
